lib/flags/m/831.svg

<svg xmlns="http://www.w3.org/2000/svg" fill="none" viewBox="0 0 20 15"><mask id="831_svg__a" width="20" height="15" x="0" y="0" mask-type="alpha" maskUnits="userSpaceOnUse"><path fill="#fff" d="M0 0H20V15H0z"/></mask><g mask="url(#831_svg__a)"><path fill="#F7FCFF" fill-rule="evenodd" d="M0 0V15H20V0H0Z" clip-rule="evenodd"/><mask id="831_svg__b" width="20" height="15" x="0" y="0" mask-type="alpha" maskUnits="userSpaceOnUse"><path fill="#fff" fill-rule="evenodd" d="M0 0V15H20V0H0Z" clip-rule="evenodd"/></mask><g fill-rule="evenodd" clip-rule="evenodd" mask="url(#831_svg__b)"><path fill="#E31D1C" d="M7.5 0H12.5V5H20V10H12.5V15H7.5V10H0V5H7.5V0Z"/><path fill="#FECA00" d="M8.12843 1.90369L8.74999 3.00007V6.24997H4.29076V6.21424L3.19122 5.59089V9.31601L4.23163 8.74997H8.74999V11.9068L8.12843 13.0032H11.8535L11.2553 11.9037H11.25V8.74997H15.7504L16.7908 9.31601V5.59089L15.6912 6.21424V6.24997H11.25V3.00322H11.2553L11.8535 1.90369H8.12843Z"/></g></g></svg>

<svg xmlns="http://www.w3.org/2000/svg" fill="none" viewBox="0 0 20 15"><mask id="831_svg__a" width="20" height="15" x="0" y="0" maskUnits="userSpaceOnUse"><path fill="#fff" d="M0 0h20v15H0z"/></mask><g mask="url(#831_svg__a)"><path fill="#F7FCFF" fill-rule="evenodd" d="M0 0v15h20V0H0z" clip-rule="evenodd"/><mask id="831_svg__b" width="20" height="15" x="0" y="0" maskUnits="userSpaceOnUse"><path fill="#fff" fill-rule="evenodd" d="M0 0v15h20V0H0z" clip-rule="evenodd"/></mask><g fill-rule="evenodd" clip-rule="evenodd" mask="url(#831_svg__b)"><path fill="#E31D1C" d="M7.5 0h5v5H20v5h-7.5v5h-5v-5H0V5h7.5V0z"/><path fill="#FECA00" d="M8.128 1.904L8.75 3v3.25H4.29v-.036l-1.099-.623v3.725l1.04-.566H8.75v3.157l-.622 1.096h3.726l-.599-1.1h-.005V8.75h4.5l1.04.566V5.591l-1.099.623v.036H11.25V3.003h.005l.599-1.1H8.128z"/></g></g></svg>
